Papirus/22x22/devices/media-flash-sd-mmc.svg

<?xml version="1.0" encoding="UTF-8" standalone="no"?>
<svg xmlns="http://www.w3.org/2000/svg" height="22" width="22" version="1">
 <path style="fill:#848484" d="M 19,20 19,5.127 15,1 4,1 C 3.446,1 3,1.446 3,2 l 0,18 c 0,0.554 0.446,1 1,1 l 14,0 c 0.554,0 1,-0.446 1,-1 z"/>
 <path style="fill:#f8c44e" d="m 4,18 0,3 2,0 0,-3 -2,0 z m 3,0 0,3 2,0 0,-3 -2,0 z m 3,0 0,3 2,0 0,-3 -2,0 z m 3,0 0,3 2,0 0,-3 -2,0 z m 3,0 0,3 2,0 0,-3 -2,0 z"/>
 <path style="opacity:0.2" d="m 4,21.5 c -0.554,0 -1,-0.446 -1,-1 L 3,20 c 0,0.554 0.446,1 1,1 l 14,0 c 0.554,0 1,-0.446 1,-1 l 0,0.5 c 0,0.554 -0.446,1 -1,1 l -14,0 z"/>
 <path style="opacity:0.1;fill:#ffffff" d="M 4,1 C 3.446,1 3,1.446 3,2 l 0,0.5 c 0,-0.554 0.446,-1 1,-1 l 11,0 4,4.12695 0,-0.5 -4,-4.127 -11,0 z"/>
 <rect style="opacity:0.3" ry=".889" rx=".75" transform="scale(1,-1)" height="8" width="12" y="-15" x="5"/>
</svg>

<svg xmlns="http://www.w3.org/2000/svg" width="22" height="22" version="1">
 <path style="opacity:0.2" d="M 4,1.5 C 3.446,1.5 3,1.946 3,2.5 V 20.5 C 3,21.054 3.446,21.5 4,21.5 H 18 C 18.554,21.5 19,21.054 19,20.5 V 5.5 L 15,1.5 Z"/>
 <path style="fill:#6d6d6d" d="M 4,1 C 3.446,1 3,1.446 3,2 V 20 C 3,20.554 3.446,21 4,21 H 18 C 18.554,21 19,20.554 19,20 V 5 L 15,1 Z"/>
 <g style="fill:#f8c44e">
  <rect width="2" height="3" x="5" y="18"/>
  <rect width="2" height="3" x="7.5" y="18"/>
  <rect width="2" height="3" x="10" y="18"/>
  <rect width="2" height="3" x="12.5" y="18"/>
  <rect width="2" height="3" x="15" y="18"/>
 </g>
 <rect style="opacity:0.35" width="13" height="9" x="4.5" y="-15.5" rx="1" ry="1" transform="scale(1,-1)"/>
 <path style="opacity:0.1;fill:#ffffff" d="M 4,1 C 3.446,1 3,1.446 3,2 V 2.5 C 3,1.946 3.446,1.5 4,1.5 H 15 L 19,5.5 V 5 L 15,1 Z"/>
</svg>
